src/static/imagenes/now_playing.svg

<?xml version="1.0" encoding="UTF-8" standalone="no"?>

<svg id="icon_now_playing" viewBox="0 0 30 30" width="100%" height="100%">
    <?xml version="1.0" encoding="UTF-8" standalone="no"?>

        <title>Now Playing</title>
        <path d="M27.9847266,7.50322266 C25.9822852,4.03494141 22.749082,1.55390625 18.8806055,0.517382812 C15.0121875,-0.519257812 10.9716797,0.0127148437 7.50322266,2.01527344 C4.03482422,4.01777344 1.55390625,7.25097656 0.517382812,11.1194531 C-0.519140625,14.9878711 0.0128320312,19.0284961 2.01527344,22.4967773 C4.01765625,25.9650586 7.25097656,28.4460937 11.1193945,29.4826172 C12.4111523,29.8287891 13.7219531,30 15.0244336,30 C17.6224219,30 20.1866016,29.3186133 22.4968359,27.9847852 C25.9651172,25.9823437 28.4461523,22.7491406 29.4826758,18.8806641 C30.5192578,15.0121289 29.987168,10.9716211 27.9847266,7.50322266 Z M27.9743555,18.476543 C27.0457617,21.9421289 24.8231836,24.8387109 21.715957,26.6326172 C18.6088477,28.426582 14.989043,28.9030664 11.523457,27.9745898 C8.0578125,27.0459961 5.16128906,24.823418 3.36732422,21.7161914 C1.57341797,18.609082 1.096875,14.9892188 2.02552734,11.5235742 C2.95417969,8.05798828 5.17675781,5.16152344 8.28392578,3.3675 C10.35375,2.17248047 12.6505664,1.56210937 14.9782031,1.56210937 C16.1448047,1.56210937 17.3195508,1.71550781 18.4763672,2.02552734 C21.9419531,2.95412109 24.8385352,5.17669922 26.6324414,8.28392578 C28.4264063,11.3910937 28.9030078,15.0108984 27.9743555,18.476543 Z M22.1940234,13.5850781 L12.5538281,8.01925781 C12.0422461,7.72388672 11.4314648,7.72400391 10.9198828,8.01919922 C10.4083008,8.31451172 10.1028516,8.84355469 10.1028516,9.43423828 L10.1028516,20.5658789 C10.1028516,21.1565625 10.4082422,21.6855469 10.9198828,21.980918 C11.1756445,22.1286328 11.4561328,22.2024023 11.7367383,22.2024023 C12.0174023,22.2024023 12.2980078,22.128457 12.5537695,21.9808594 L22.194082,16.4150977 C22.7056055,16.119668 23.0109375,15.5906836 23.0109375,15 C23.0109375,14.409375 22.7055469,13.8803906 22.1940234,13.5850781 Z M21.4132031,15.0629297 L11.7729492,20.6286914 C11.7611719,20.6355469 11.7366211,20.649668 11.7005273,20.6286914 C11.6643164,20.6077734 11.6643164,20.5795312 11.6643164,20.5659375 L11.6643164,9.43429687 C11.6643164,9.42070312 11.6643164,9.39246094 11.7005273,9.37154297 C11.714707,9.36333984 11.7270703,9.36052734 11.7376172,9.36052734 C11.7540234,9.36052734 11.7658594,9.36738281 11.7730664,9.37154297 L21.4132617,14.9373633 C21.4250391,14.9441602 21.4494727,14.9582812 21.4494727,15.0001172 C21.4494727,15.0419531 21.4249219,15.0561328 21.4132031,15.0629297 Z M24.2169727,7.87734375 C22.3601953,5.47863281 19.5689648,3.86707031 16.5588867,3.45580078 C16.1321484,3.39738281 15.7380469,3.69638672 15.6796289,4.12371094 C15.6213281,4.55091797 15.920332,4.94455078 16.3475391,5.00296875 C18.9556641,5.35927734 21.3738867,6.75544922 22.9822266,8.83318359 C23.1360937,9.03193359 23.3668945,9.13599609 23.6001562,9.13599609 C23.7670898,9.13599609 23.9353125,9.08273437 24.0774609,8.97257813 C24.418418,8.70867187 24.4808789,8.21830078 24.2169727,7.87734375 Z" fillRule="nonzero"></path>
      </svg>

<svg xmlns="http://www.w3.org/2000/svg" viewBox="0 0 30 30"><path d="M27.985 7.503A14.895 14.895 0 0018.88.517 14.895 14.895 0 007.503 2.015 14.895 14.895 0 00.517 11.12a14.895 14.895 0 001.498 11.378 14.895 14.895 0 009.104 6.986 14.906 14.906 0 0011.377-1.498 14.895 14.895 0 006.987-9.104 14.895 14.895 0 00-1.498-11.378zm-.01 10.974a13.344 13.344 0 01-6.259 8.156 13.344 13.344 0 01-10.193 1.342 13.344 13.344 0 01-8.156-6.259 13.344 13.344 0 01-1.341-10.192 13.345 13.345 0 016.258-8.156 13.353 13.353 0 0110.192-1.342 13.344 13.344 0 018.156 6.258 13.344 13.344 0 011.342 10.193zm-5.781-4.892l-9.64-5.566a1.618 1.618 0 00-1.634 0 1.617 1.617 0 00-.817 1.415v11.132c0 .59.305 1.12.817 1.415.256.148.536.221.817.221.28 0 .561-.074.817-.221l9.64-5.566c.512-.295.817-.824.817-1.415 0-.59-.305-1.12-.817-1.415zm-.78 1.478l-9.641 5.566a.065.065 0 01-.072 0c-.037-.021-.037-.05-.037-.063V9.434c0-.013 0-.042.037-.062a.073.073 0 01.037-.011c.016 0 .028.006.035.01l9.64 5.566c.012.007.036.021.036.063 0 .042-.024.056-.036.063zm2.803-7.186a11.774 11.774 0 00-7.658-4.421.781.781 0 00-.211 1.547 10.2 10.2 0 016.634 3.83.78.78 0 001.095.14.78.78 0 00.14-1.096z"/></svg>
